X:211
T:Clumsy Lover, The
R:jig
C:Neil Dickie, Scotland
H:Originally a reel, see reel#312 and reel#917
Z:id:hn-jig-211
M:6/8
K:A
~c3 ece|~d3 =gfe|~c3 ecc|dBc dcB|
~c3 ece|~d3 =gfe|~c3 dB^G|BA^G A2B:|
cee aec|dff afd|cee aec|B2c dcB|
cee aec|dff afd|~c3 dB^G|BA^G A2B|
caa caa|daa daa|caa caa|B2c dcB|
caa caa|daa daa|~c3 dB^G|BA^G A2B||

